X:51
T:Royal Quick Step,The. TJD.51
T:Boys and Girls Come Out to Play,aka. TJD.51
M:6/8
L:1/8
Q:1/4=120
S:T.J.Dixon MS1, Lincolnshire, early 19thC
R:quick step
N:Repeat mark added at end
A:Lincolnshire, Holton le Moor
Z:vmp.R.Greig2010
K:G
d|B2gc2e|d2BG2B|”_triplet in MS”ABA c2A|d2BG2d|!
B2gc2e|d2BG2B|AcB AGF|G3G2:|!
|:d|gag fef|gfe def|gag fef|g3-g2d|!
gag fef|gfe def|gag fef|”^Da Capo”g3-g2:|]

